flaticon/interaction/map-16.svg

<svg xmlns="http://www.w3.org/2000/svg" width="32" height="32" viewBox="0 0 24 24">
    <path d="M23.242188 18.746094C23.011719 18.699219 22.792969 18.847656 22.746094 19.074219 22.273438 21.390625 20.453125 22.945312 18.210938 22.945312 16.09375 22.945312 14.230469 21.558594 13.601562 19.578125L15.578125 19.578125 15.578125 18.734375 12.210938 18.734375 12.210938 22.105469 13.050781 22.105469 13.050781 20.484375C13.964844 22.457031 15.964844 23.789062 18.210938 23.789062 20.863281 23.789062 23.019531 21.960938 23.570312 19.242188 23.617188 19.011719 23.46875 18.789062 23.242188 18.746094zM23.15625 13.683594L23.15625 15.496094C22.210938 13.621094 20.335938 12.421875 18.210938 12.421875 15.636719 12.421875 13.351562 14.101562 12.648438 16.511719 12.582031 16.738281 12.710938 16.96875 12.933594 17.035156 13.160156 17.101562 13.390625 16.972656 13.457031 16.75 14.046875 14.726562 16.042969 13.261719 18.210938 13.261719 20.132812 13.261719 21.816406 14.425781 22.558594 16.210938L20.632812 16.210938 20.632812 17.050781 24 17.050781 24 13.683594zM23.15625 13.683594"/>
    <path d="M 10.261719 19.1875 L 8.421875 18.449219 L 8.421875 1.332031 L 14.738281 4.671875 L 14.738281 10.734375 C 14.738281 10.96875 14.925781 11.15625 15.15625 11.15625 C 15.390625 11.15625 15.578125 10.96875 15.578125 10.734375 L 15.578125 4.703125 L 21.894531 2.101562 L 21.894531 11.578125 C 21.894531 11.808594 22.082031 12 22.316406 12 C 22.546875 12 22.738281 11.808594 22.738281 11.578125 L 22.738281 1.472656 C 22.738281 1.332031 22.667969 1.199219 22.550781 1.121094 C 22.433594 1.042969 22.285156 1.03125 22.15625 1.082031 L 15.179688 3.957031 L 8.195312 0.257812 C 8.191406 0.257812 8.183594 0.253906 8.179688 0.253906 C 8.160156 0.242188 8.140625 0.234375 8.121094 0.230469 C 8.105469 0.226562 8.09375 0.222656 8.082031 0.21875 C 8.058594 0.214844 8.039062 0.214844 8.015625 0.210938 C 8.003906 0.210938 7.992188 0.210938 7.976562 0.210938 C 7.957031 0.210938 7.9375 0.21875 7.917969 0.222656 C 7.902344 0.222656 7.886719 0.226562 7.875 0.230469 C 7.871094 0.230469 7.867188 0.230469 7.867188 0.230469 L 0.289062 2.757812 C 0.117188 2.816406 0 2.976562 0 3.15625 L 0 21.261719 C 0 21.398438 0.0664062 21.523438 0.175781 21.605469 C 0.246094 21.65625 0.332031 21.683594 0.421875 21.683594 C 0.464844 21.683594 0.511719 21.675781 0.554688 21.660156 L 7.988281 19.183594 L 9.949219 19.96875 C 10 19.988281 10.054688 20 10.105469 20 C 10.273438 20 10.429688 19.898438 10.496094 19.734375 C 10.582031 19.519531 10.476562 19.273438 10.261719 19.1875 Z M 0.84375 3.460938 L 7.578125 1.214844 L 7.578125 18.433594 L 0.84375 20.679688 Z M 0.84375 3.460938"/>
</svg>

<svg xmlns="http://www.w3.org/2000/svg" width="32" height="32" viewBox="0 0 24 24">
    <path d="M23.242 18.746a.42.42 0 0 0-.496.328c-.473 2.317-2.293 3.871-4.535 3.871a4.85 4.85 0 0 1-4.61-3.367h1.977v-.844h-3.367v3.371h.84v-1.62a5.706 5.706 0 0 0 5.16 3.304c2.652 0 4.809-1.828 5.36-4.547a.418.418 0 0 0-.329-.496zm0 0M23.156 13.684v1.812c-.945-1.875-2.82-3.074-4.945-3.074-2.574 0-4.86 1.68-5.563 4.09a.42.42 0 0 0 .286.523.42.42 0 0 0 .523-.285c.59-2.023 2.586-3.488 4.754-3.488 1.922 0 3.605 1.164 4.348 2.949h-1.926v.84H24v-3.367zm0 0"/>
    <path d="M10.262 19.188l-1.84-.739V1.332l6.316 3.34v6.062a.42.42 0 1 0 .84 0v-6.03l6.317-2.602v9.476a.423.423 0 0 0 .843 0V1.473c0-.141-.07-.274-.187-.352a.43.43 0 0 0-.395-.039L15.18 3.957 8.195.257 8.18.255A.184.184 0 0 0 8.12.23C8.105.227 8.094.223 8.082.22 8.059.215 8.039.215 8.016.21h-.04c-.019 0-.038.008-.058.012a.14.14 0 0 0-.043.007h-.008L.29 2.758A.424.424 0 0 0 0 3.156v18.106a.42.42 0 0 0 .555.398l7.433-2.476 1.961.785a.422.422 0 0 0 .313-.781zM.844 3.46l6.734-2.246v17.219L.844 20.68zm0 0"/>
</svg>
